lib/flags/s/BLZ.svg

<svg xmlns="http://www.w3.org/2000/svg" fill="none" viewBox="0 0 16 12"><mask id="BLZ_svg__a" width="16" height="12" x="0" y="0" mask-type="alpha" maskUnits="userSpaceOnUse"><path fill="#fff" d="M0 0H16V12H0z"/></mask><g mask="url(#BLZ_svg__a)"><path fill="#0168B4" fill-rule="evenodd" d="M0 0V12H16V0H0Z" clip-rule="evenodd"/><mask id="BLZ_svg__b" width="16" height="12" x="0" y="0" mask-type="alpha" maskUnits="userSpaceOnUse"><path fill="#fff" fill-rule="evenodd" d="M0 0V12H16V0H0Z" clip-rule="evenodd"/></mask><g mask="url(#BLZ_svg__b)"><path fill="#E93C43" fill-rule="evenodd" d="M0 0V2H16V0H0zM0 10V12H16V10H0z" clip-rule="evenodd"/><path fill="#F7FCFF" d="M8 9C6.34315 9 5 7.65685 5 6C5 4.34315 6.34315 3 8 3C9.65685 3 11 4.34315 11 6C11 7.65685 9.65685 9 8 9Z"/><path fill="#fff" fill-rule="evenodd" d="M4.5 6C4.5 7.933 6.067 9.5 8 9.5C9.933 9.5 11.5 7.933 11.5 6C11.5 4.067 9.933 2.5 8 2.5C6.067 2.5 4.5 4.067 4.5 6ZM11 6C11 7.65685 9.65685 9 8 9C6.34315 9 5 7.65685 5 6C5 4.34315 6.34315 3 8 3C9.65685 3 11 4.34315 11 6Z" clip-rule="evenodd"/><path fill="#5B8C39" fill-rule="evenodd" d="M5 6C5 7.65685 6.34315 9 8 9C9.65685 9 11 7.65685 11 6C11 4.34315 9.65685 3 8 3C6.34315 3 5 4.34315 5 6ZM10.3 6C10.3 7.27026 9.27026 8.3 8 8.3C6.72974 8.3 5.7 7.27026 5.7 6C5.7 4.72974 6.72974 3.7 8 3.7C9.27026 3.7 10.3 4.72974 10.3 6Z" clip-rule="evenodd"/><path fill="#5B8C39" fill-rule="evenodd" d="M6.5 7.00001L7.96954 6.81238L9.5 7.00001V7.50001L7.96954 7.31238L6.5 7.50001V7.00001Z" clip-rule="evenodd"/><path fill="#769DF1" fill-rule="evenodd" d="M7.00002 5H9.00002C9.00002 5 9.14144 8 8.00002 8C6.85861 8 7.00002 5 7.00002 5Z" clip-rule="evenodd"/><path fill="#FECA00" d="M8 5H9V6H8z"/><path fill="#F6F7F8" d="M7 5H8V6H7z" opacity=".6"/><rect width="2" height="1" x="7" y="4" fill="#5B8C39" opacity=".66" rx=".5"/><path fill="#E9AD35" fill-rule="evenodd" d="M6.90002 6.40002C7.17617 6.40002 7.40002 5.95231 7.40002 5.40002C7.40002 4.84774 7.17617 4.40002 6.90002 4.40002C6.62388 4.40002 6.40002 4.84774 6.40002 5.40002C6.40002 5.95231 6.62388 6.40002 6.90002 6.40002Z" clip-rule="evenodd"/><path fill="#5C2216" fill-rule="evenodd" d="M9.09998 6.40002C9.37612 6.40002 9.59998 5.95231 9.59998 5.40002C9.59998 4.84774 9.37612 4.40002 9.09998 4.40002C8.82383 4.40002 8.59998 4.84774 8.59998 5.40002C8.59998 5.95231 8.82383 6.40002 9.09998 6.40002Z" clip-rule="evenodd"/></g></g></svg>

<svg xmlns="http://www.w3.org/2000/svg" fill="none" viewBox="0 0 16 12"><mask id="BLZ_svg__a" width="16" height="12" x="0" y="0" maskUnits="userSpaceOnUse"><path fill="#fff" d="M0 0h16v12H0z"/></mask><g mask="url(#BLZ_svg__a)"><path fill="#0168B4" fill-rule="evenodd" d="M0 0v12h16V0H0z" clip-rule="evenodd"/><mask id="BLZ_svg__b" width="16" height="12" x="0" y="0" maskUnits="userSpaceOnUse"><path fill="#fff" fill-rule="evenodd" d="M0 0v12h16V0H0z" clip-rule="evenodd"/></mask><g mask="url(#BLZ_svg__b)"><path fill="#E93C43" fill-rule="evenodd" d="M0 0v2h16V0H0zm0 10v2h16v-2H0z" clip-rule="evenodd"/><path fill="#F7FCFF" d="M8 9a3 3 0 110-6 3 3 0 010 6z"/><path fill="#fff" fill-rule="evenodd" d="M4.5 6a3.5 3.5 0 107 0 3.5 3.5 0 00-7 0zM11 6a3 3 0 11-6 0 3 3 0 016 0z" clip-rule="evenodd"/><path fill="#5B8C39" fill-rule="evenodd" d="M5 6a3 3 0 106 0 3 3 0 00-6 0zm5.3 0a2.3 2.3 0 11-4.6 0 2.3 2.3 0 014.6 0z" clip-rule="evenodd"/><path fill="#5B8C39" fill-rule="evenodd" d="M6.5 7l1.47-.188L9.5 7v.5l-1.53-.188L6.5 7.5V7z" clip-rule="evenodd"/><path fill="#769DF1" fill-rule="evenodd" d="M7 5h2s.141 3-1 3-1-3-1-3z" clip-rule="evenodd"/><path fill="#FECA00" d="M8 5h1v1H8z"/><path fill="#F6F7F8" d="M7 5h1v1H7z" opacity=".6"/><rect width="2" height="1" x="7" y="4" fill="#5B8C39" opacity=".66" rx=".5"/><path fill="#E9AD35" fill-rule="evenodd" d="M6.9 6.4c.276 0 .5-.448.5-1s-.224-1-.5-1-.5.448-.5 1 .224 1 .5 1z" clip-rule="evenodd"/><path fill="#5C2216" fill-rule="evenodd" d="M9.1 6.4c.276 0 .5-.448.5-1s-.224-1-.5-1-.5.448-.5 1 .224 1 .5 1z" clip-rule="evenodd"/></g></g></svg>
